X: 1
M: 6/8
L: 1/8
K: A
V: 1
e2e efd | c2c cdB | A2A ABG | A>EC A,2A |\
e2e efd | c2c cdB | A2A ABG | A2A A2 :|
|: E |\
V: 2 clef=bass middle=d
z |\
a2e A3 | A2a g2e | A2a e2E | f2c d2e |
a>ec A2 :||: z | d6 | e6 | f2g
a3 | e>BG E2z | d6 | e6 |
a2A e2E | A2a A2 :|


